ui/StatusQ/src/assets/img/icons/tiny/contact.svg

<svg fill="none" height="17" viewBox="0 0 16 17" width="16" xmlns="http://www.w3.org/2000/svg"><g fill="#000"><path d="m8 8c1.24264 0 2.25-1.00736 2.25-2.25s-1.00736-2.25-2.25-2.25-2.25 1.00736-2.25 2.25 1.00736 2.25 2.25 2.25z"/><path d="m4.12343 12.5101c.44051-1.7303 2.00909-3.0101 3.87657-3.0101s3.4361 1.2798 3.8766 3.0101c.1362.5352-.3243.9899-.8766.9899h-6c-.55228 0-1.01283-.4547-.87657-.9899z"/></g></svg>

<svg width="16" height="17" viewBox="0 0 16 17" fill="none" xmlns="http://www.w3.org/2000/svg">
<path d="M8 8C9.24264 8 10.25 6.99264 10.25 5.75C10.25 4.50736 9.24264 3.5 8 3.5C6.75736 3.5 5.75 4.50736 5.75 5.75C5.75 6.99264 6.75736 8 8 8Z" fill="black"/>
<path d="M4.12343 12.5101C4.56394 10.7798 6.13252 9.5 8 9.5C9.86748 9.5 11.4361 10.7798 11.8766 12.5101C12.0128 13.0453 11.5523 13.5 11 13.5H5C4.44772 13.5 3.98717 13.0453 4.12343 12.5101Z" fill="black"/>
</svg>
